X:127
T:Polska ur Sven Donats notbok (Ma5-127)
R:Polska
O:Småland
B:Sven Donats notbok
B:FMK Ma5 bild 129
S:Sven Donat
M:3/4
L:1/16
K:G
GFGA GFGA TB4|AGFE DFAB Tc4|cBAG GABc edcB|e2ed cBAG F2ED|
GFGA GFGA B4|AGFE DFAB c4|cBAG GABc edcB|edcB TA4 G4:|
|:D3d edcB c4|ABce dcBA GFED|D3d edcB c4|ABce dcBA GFED|
GFGA GFGA B4|AGFE DFAB c4|cBAG GABc edcB|edcB TA4 G4:|

